X: 24274
T: Lost Again
R: jig
M: 6/8
K: Amixolydian
|:edc e2a|gfg B2A|BGB dcB|
edc e2a|gfg B2A|BGB dcB:|
|:A2g fed|efg agf|ged edB|A2g fed|
efg agf|ged eAA|1 ecc dcB:|2 ecc dcB|ABA ABc||
|:ddd A2f|eee B2g|cAc aec|ddd A2f|
eee B2g|cAc aec|1 Ace ABc:|2 Ace dag||
|:fdf a2g|Ace aec|ddd fdf|
a2g Ace|aec Ace|gec ddd:|

